X: 203
U:~=!turn!
M:6/8
L:1/8
K:D
"Slowly."e |: d>BA A2B | Tdfe dBA | d>BA B2g | aAa Tf2e :| Td>ef g>eg | a>Aa f>ed |
a>Aa f>ef | d>ef g>eg | a>Aa Tf2e | Td>ef g2{/A}A | a2{/A}A f>ef | d>BA TB2g | aAa Tf2e |]


